assets/icons/loading_coffee_2.svg

<?xml version="1.0" encoding="UTF-8" standalone="no"?>
<svg
   width="89"
   height="41"
   viewBox="0 0 89 41"
   fill="none"
   version="1.1"
   id="svg12"
   sodipodi:docname="loading_coffee_2.svg"
   inkscape:version="1.3 (0e150ed, 2023-07-21)"
   inkscape:export-filename="loading_coffee_2.png"
   inkscape:export-xdpi="194.1573"
   inkscape:export-ydpi="194.1573"
   xmlns:inkscape="http://www.inkscape.org/namespaces/inkscape"
   xmlns:sodipodi="http://sodipodi.sourceforge.net/DTD/sodipodi-0.dtd"
   xmlns="http://www.w3.org/2000/svg"
   xmlns:svg="http://www.w3.org/2000/svg">
  <defs
     id="defs12" />
  <sodipodi:namedview
     id="namedview12"
     pagecolor="#ffffff"
     bordercolor="#999999"
     borderopacity="1"
     inkscape:showpageshadow="0"
     inkscape:pageopacity="0"
     inkscape:pagecheckerboard="0"
     inkscape:deskcolor="#d1d1d1"
     inkscape:zoom="8.5408965"
     inkscape:cx="40.042635"
     inkscape:cy="21.719031"
     inkscape:current-layer="svg12"
     showgrid="false" />
  <g
     id="g13"
     transform="translate(-1.3965965,0.90218219)">
    <path
       d="m 51.2443,9.6258 c 3.76,3.6593 3.7315,10.5038 -0.5057,14.8575 -4.4567,10.3144 -11.7374,8.1125 -15.4973,4.4532 -3.76,-3.6593 -2.7141,-13.6999 1.523,-18.0536 4.2372,-4.35358 10.7201,-4.91643 14.48,-1.2571 z"
       fill="#471d12"
       id="path1" />
    <path
       d="m 43.7813,9.04485 c 0.4341,-0.05661 2.4483,-0.0629 2.8119,0 3.4887,0.60641 -0.3624,0.6907 -3.2799,4.02965 -2.4696,2.827 -7.0554,11.4537 -3.9366,14.8078 -8.589,-3.1012 -3.1452,-17.8637 4.4046,-18.8387 z"
       fill="#6e3d2c"
       id="path2" />
    <path
       d="m 48.4678,11.4805 c 2.6244,0.1862 -4.5833,14.9651 -7.4983,14.9953 1.3361,-3.4384 0.9713,-1.8557 -1.3122,-0.7498 -0.4189,-4.4046 3.4422,-11.0549 6.7485,-14.058 0.2679,3.1566 1.0857,-0.2567 2.062,-0.1875 z"
       fill="#874c2b"
       id="path3" />
    <path
       d="M 50.3423,10.9182 C 54.9734,17.8 49.195,28.1692 41.157,28.7253 45.7868,26.3702 51.4973,15.9431 50.3423,10.9182 Z"
       fill="#6e3d2c"
       id="path4" />
    <g
       id="g12"
       transform="translate(-6.5148861)">
      <path
         d="M 69.1275,9.56385 C 73.6906,6.97428 80.2553,8.91146 83.2538,14.1951 91.915,21.3528 87.769,27.73 83.2059,30.3195 78.6428,32.9091 69.2928,29.1031 66.2944,23.8195 63.2959,18.5359 64.5644,12.1534 69.1275,9.56385 Z"
         fill="#000000"
         id="path5" />
      <path
         d="m 66.4872,16.5683 c 0.0668,-0.4326 0.6228,-2.3685 0.7846,-2.7001 1.5558,-3.181 0.5622,0.5406 2.9545,4.274 2.0255,3.1603 9.0301,9.971 13.1212,7.912 C 77.9729,33.4367 65.3157,24.09 66.486,16.568 Z"
         fill="#eaeaea"
         id="path6" />
      <path
         d="m 70.1338,12.7476 c 0.9111,-2.4682 13.0919,8.5769 12.3075,11.3846 -2.929,-2.2425 -1.511,-1.4505 -1.0862,1.0508 -4.3466,-0.8267 -9.6554,-6.39 -11.6166,-10.4029 3.1059,0.6234 0.0565,-1.1143 0.3953,-2.0325 z"
         fill="#eaeaea"
         id="path7" />
      <path
         d="M 70.1169,10.7906 C 78.0176,8.2637 86.3626,16.7059 84.6538,24.5798 83.684,19.4768 75.2644,11.0836 70.1169,10.7906 Z"
         fill="#eaeaea"
         id="path8" />
    </g>
    <path
       d="m 35,18.5001 c 0,5.2467 -4.9249,10 -11,10 -10.5,4 -14,-2.7533 -14,-8 0,-5.2467 7.9249,-11.49998 14,-11.49998 6.0751,0 11,4.25328 11,9.49998 z"
       fill="#471d12"
       id="path9" />
    <path
       d="m 27.5675,15.3153 c 1.0631,-0.0667 2.9503,-0.0943 3.2799,1.2179 0.0667,0.2654 0.0365,1.7563 -0.0931,1.9676 -0.4215,0.6819 -14.1775,5.6413 -14.9953,5.6237 -5.9168,-0.1283 5.3218,-8.4003 11.8085,-8.8104 z"
       fill="#874c2b"
       id="path10" />
    <path
       d="m 24.3807,11.0038 c 4.6713,-0.1334 7.7411,3.4032 7.1234,3.7491 C 25.6917,12.6607 15.5514,17.6 12.103,22.7192 11.0235,16.3092 18.6589,11.1674 24.3807,11.0038 Z"
       fill="#6e3d2c"
       id="path11" />
    <path
       d="m 30.1917,20.1891 0.0931,3.6548 C 25.9884,27.3829 17.271,30.0198 13.04,25.531 19.1707,25.4882 24.6485,22.4184 30.1917,20.1891 Z"
       fill="#6e3d2c"
       id="path12" />
  </g>
</svg>

<svg width="89" height="41" viewBox="0 0 89 41" fill="none" xmlns="http://www.w3.org/2000/svg">
<path d="M51.2443 9.6258C55.0043 13.2851 54.9758 20.1296 50.7386 24.4833C46.2819 34.7977 39.0012 32.5958 35.2413 28.9365C31.4813 25.2772 32.5272 15.2366 36.7643 10.8829C41.0015 6.52932 47.4844 5.96647 51.2443 9.6258Z" fill="#471D12"/>
<path d="M43.7813 9.04485C44.2154 8.98824 46.2296 8.98195 46.5932 9.04485C50.0819 9.65126 46.2308 9.73555 43.3133 13.0745C40.8437 15.9015 36.2579 24.5282 39.3767 27.8823C30.7877 24.7811 36.2315 10.0186 43.7813 9.0436V9.04485Z" fill="#6E3D2C"/>
<path d="M48.4678 11.4805C51.0922 11.6667 43.8845 26.4456 40.9695 26.4758C42.3056 23.0374 41.9408 24.6201 39.6573 25.726C39.2384 21.3214 43.0995 14.6711 46.4058 11.668C46.6737 14.8246 47.4915 11.4113 48.4678 11.4805Z" fill="#874C2B"/>
<path d="M50.3423 10.9182C54.9734 17.8 49.195 28.1692 41.157 28.7253C45.7868 26.3702 51.4973 15.9431 50.3423 10.9182Z" fill="#6E3D2C"/>
<path d="M69.1275 9.56385C73.6906 6.97428 80.2553 8.91146 83.2538 14.1951C91.915 21.3528 87.769 27.73 83.2059 30.3195C78.6428 32.9091 69.2928 29.1031 66.2944 23.8195C63.2959 18.5359 64.5644 12.1534 69.1275 9.56385Z" fill="black"/>
<path d="M66.4872 16.5683C66.554 16.1357 67.11 14.1998 67.2718 13.8682C68.8276 10.6872 67.834 14.4088 70.2263 18.1422C72.2518 21.3025 79.2564 28.1132 83.3475 26.0542C77.9729 33.4367 65.3157 24.09 66.486 16.568L66.4872 16.5683Z" fill="#EAEAEA"/>
<path d="M70.1338 12.7476C71.0449 10.2794 83.2257 21.3245 82.4413 24.1322C79.5123 21.8897 80.9303 22.6817 81.3551 25.183C77.0085 24.3563 71.6997 18.793 69.7385 14.7801C72.8444 15.4035 69.795 13.6658 70.1338 12.7476Z" fill="#EAEAEA"/>
<path d="M70.1169 10.7906C78.0176 8.2637 86.3626 16.7059 84.6538 24.5798C83.684 19.4768 75.2644 11.0836 70.1169 10.7906Z" fill="#EAEAEA"/>
<path d="M35 18.5001C35 23.7468 30.0751 28.5001 24 28.5001C13.5 32.5001 10 25.7468 10 20.5001C10 15.2534 17.9249 9.00012 24 9.00012C30.0751 9.00012 35 13.2534 35 18.5001Z" fill="#471D12"/>
<path d="M27.5675 15.3153C28.6306 15.2486 30.5178 15.221 30.8474 16.5332C30.9141 16.7986 30.8839 18.2895 30.7543 18.5008C30.3328 19.1827 16.5768 24.1421 15.759 24.1245C9.8422 23.9962 21.0808 15.7242 27.5675 15.3141V15.3153Z" fill="#874C2B"/>
<path d="M24.3807 11.0038C29.052 10.8704 32.1218 14.407 31.5041 14.7529C25.6917 12.6607 15.5514 17.6 12.103 22.7192C11.0235 16.3092 18.6589 11.1674 24.3807 11.0038Z" fill="#6E3D2C"/>
<path d="M30.1917 20.1891L30.2848 23.8439C25.9884 27.3829 17.271 30.0198 13.04 25.531C19.1707 25.4882 24.6485 22.4184 30.1917 20.1891Z" fill="#6E3D2C"/>
</svg>
